X: 1
T: Willie Coleman's Jig
T: Mice in the Cupboard
R: jig
M: 6/8
L: 1/8
K: G
|: "G"B2G "C"AGE | "D7"GED "G"GBd |  "C"edB  "G"dgb | "Am"age "D7"dBA \ 
|  "G"B2G "C"AGE | "D7"GED "G"GBd | "Em"edB "Am"dBA | "D7"BGF "G"G3 :| 
|: "G"~g3 edB | dgb age | ~g3 edB | GBd "C"e3  \ 
|  "G"~g3 edB | dgb age | dBd gdB | "D7"AGF "G"G3 :|
